svgs/sharp-regular/shelves.svg

<svg xmlns="http://www.w3.org/2000/svg" viewBox="0 0 640 512"><!--! Font Awesome Pro 6.6.0 by @fontawesome - https://fontawesome.com License - https://fontawesome.com/license (Commercial License) Copyright 2024 Fonticons, Inc. --><path d="M48 0l0 24 0 136 544 0 0-136 0-24 48 0 0 24 0 136 0 24 0 24 0 208 0 24 0 24 0 24 0 24-48 0 0-24 0-24L48 464l0 24 0 24L0 512l0-24 0-24 0-24 0-24L0 208l0-24 0-24L0 24 0 0 48 0zm0 416l544 0 0-208L48 208l0 208zM352 0L480 0l0 128-128 0L352 0zM224 256l0 128L96 384l0-128 128 0zm160 0l0 128-128 0 0-128 128 0z"/></svg>

<svg xmlns="http://www.w3.org/2000/svg" viewBox="0 0 640 512"><!--! Font Awesome Pro 6.4.0 by @fontawesome - https://fontawesome.com License - https://fontawesome.com/license (Commercial License) Copyright 2023 Fonticons, Inc. --><path d="M48 0V24 160H592V24 0h48V24 160v24 24V416v24 24 24 24H592V488 464H48v24 24H0V488 464 440 416 208 184 160 24 0H48zm0 416H592V208H48V416zM352 0H480V128H352V0zM224 256V384H96V256H224zm160 0V384H256V256H384z"/></svg>
